!!!SOCIAL_FUNCTION:	songs connected with ceremonies
!!!PDT:	1929
!!!OTL: No_107_Song_of_the_Watchers_(b).krn
!!!REG: Southwest
!!!LANG: Non-Tone
!!!LING_GROUP: Uto-Aztecan
**kern
*staff1
=1-
*clefF4
*k[b-e-]
*M2/4
4F\
8.F\L
16F\Jk
=2
4F\
4d\
=3||
*M3/4
(8.d\L
16B-\Jk)
4B-\
(8.d\L
16c\Jk)
=4
(4c\
4B-\)
8.G\L
16F\Jk
=5||
*M2/4
8.F\L
16D\Jk
8D\
8r
=6
8.G\L
16F\Jk
4F\
=7
4..G\
16F\
=8
4F\
4r
=9!|:
*M3/4
[4d\
8.d\L]
16c\Jk
4c\
=10
4B-\
4d\
(8.c\L
16B-\Jk)
=11
(8.B-\L
16F\Jk)
8F\
8r
4G\
=12||
*M2/4
8.F\L
16D\Jk
4D\
=13||
*M3/4
8.F\L
16F\Jk
4F\
4F\
=14
2.F\
==:|!
*-
